images/billing-software/cogitate.svg

<svg height="119" viewBox="0 0 399 119" width="399" xmlns="http://www.w3.org/2000/svg"><g fill="none" fill-rule="evenodd" transform="translate(0 -8)"><path d="m195.627306 24.6725107 12.296094.0692779c1.554439.008758 3.042721.6301419 4.141893 1.729314l8.25444 8.2544402c.394122.3941224.394122 1.033121 0 1.4272433-.189264.1892642-.445962.2955918-.713622.2955918h-23.978711c-3.261002 0-5.904567-2.6435647-5.904567-5.904567 0-3.242681 2.628713-5.8713934 5.871394-5.8713934.011026 0 .022053.000031.033079.0000932z" fill="#19efb6" opacity=".826869" transform="matrix(-.70710678 .70710678 -.70710678 -.70710678 373.061491 -93.439507)"/><g fill="#2d75ff"><path d="m195.641156 10h23.978711c.557374 0 1.009214.4518402 1.009214 1.0092134 0 .26766-.106328.5243574-.295592.7136217l-8.385436 8.3854357c-1.113728 1.1137284-2.625127 1.7380883-4.200174 1.7350948l-12.106733-.0230097c-3.262811-.0062012-5.904557-2.652973-5.904557-5.915789 0-3.2610022 2.643565-5.9045669 5.904567-5.9045669z" opacity=".757347" transform="matrix(-.70710678 -.70710678 .70710678 -.70710678 340.227255 172.774785)"/><path d="m214.837802 19.2388248 4.12399 4.1235923-4.12399 4.1238773c-2.305877 2.3058768-6.044442 2.3058768-8.350319 0-1.375239-1.3752395-1.925643-3.2629663-1.651211-5.0484251.197149-1.1716964.747437-2.2952699 1.651211-3.1990445 2.305877-2.3058769 6.044442-2.3058769 8.350319 0z" transform="matrix(-1 0 0 -1 423.729584 46.72512)"/><path d="m31.4200201 106.00553c5.9071675 0 11.1608122-1.086376 15.760934-3.259127 4.6001218-2.172752 8.1732791-5.2366704 10.719472-9.1917566 2.5461929-3.9550863 3.9381116-8.5127716 4.1757563-13.6730558h-17.7724263c-.1357969 4.2097056-1.290071 7.2821116-3.4628223 9.2172182s-5.3130558 2.9026599-9.4209137 2.9026599c-4.8547411 0-8.2751268-1.6974619-10.2611573-5.0923857-1.9860304-3.3949239-2.9790456-9.0474721-2.9790456-16.9576446v-5.2451574c.1018477-7.2990862 1.1882233-12.612142 3.2591268-15.9391674 2.0709036-3.3270253 5.3300305-4.990538 9.7773807-4.990538 4.3794518 0 7.6385786.9845279 9.7773807 2.9535837 2.138802 1.9690558 3.2761015 5.2112081 3.4118984 9.7264568h17.8233502c-.7468833-8.3175634-3.8532386-14.8443045-9.319066-19.5802232-5.4658273-4.7359188-12.6970151-7.1038782-21.6935633-7.1038782-6.2466599 0-11.7464365 1.4852792-16.4993299 4.4558376-4.75289333 2.9705583-8.39394915 7.1802639-10.92316741 12.6291167-2.52921826 5.4488527-3.79382739 11.8058476-3.79382739 19.0709846v3.6665178c0 11.5766903 2.80081217 20.5392892 8.4024365 26.8877968 5.6016243 6.3485078 13.2741522 9.5227618 23.0175836 9.5227618zm63.5966718 0c8.1478171 0 14.6066601-2.520731 19.3765281-7.5621933 4.769868-5.0414619 7.154802-11.8567715 7.154802-20.4459288v-.6110863c0-8.7928528-2.376447-15.7439593-7.12934-20.8533197-4.752894-5.1093604-11.254173-7.6640406-19.5038378-7.6640406-5.3979289 0-10.0998984 1.1542741-14.1059085 3.4628223-4.0060102 2.3085483-7.0784162 5.6101117-9.2172183 9.9046904-2.138802 4.2945786-3.208203 9.1917562-3.208203 14.6915329l.0509239 2.9026599c.3734416 8.0459695 2.9366091 14.419939 7.6895025 19.1219085 4.7528933 4.7019697 11.0504771 7.0529547 18.8927511 7.0529547zm0-13.2402034c-3.1233299 0-5.482802-1.1882234-7.0784162-3.56467-1.5956142-2.3764467-2.3934213-6.110863-2.3934213-11.2032487l.0509239-3.1063553c.4752893-8.5212589 3.5816446-12.7818883 9.3190659-12.7818883 6.3145588 0 9.4718378 4.9396142 9.4718378 14.8188426v1.7314111c-.135797 9.4039391-3.259127 14.1059086-9.3699901 14.1059086zm57.0784181 33.9152894c5.635574 0 10.592162-.959066 14.869766-2.877198s7.545219-4.66802 9.802843-8.249665 3.386436-7.799838 3.386436-12.654579v-53.0117355h-15.5827l-.611086 4.7868426c-3.225178-3.8702132-7.706477-5.8053198-13.443899-5.8053198-4.549198 0-8.538233 1.1627614-11.967106 3.4882843-3.428873 2.3255228-6.059939 5.6270862-7.893198 9.9046903-1.833259 4.277604-2.749888 9.2002436-2.749888 14.7679187v.6110863c0 8.6231065 2.070903 15.5063146 6.21271 20.6496242 4.141807 5.1433099 9.573685 7.7149649 16.295635 7.7149649 5.024487 0 9.183269-1.816285 12.476345-5.448853v1.731411c0 7.808325-3.802315 11.712487-11.406944 11.712487-5.228183 0-9.437889-1.884183-12.629117-5.652548l-7.180264 10.082924c2.003005 2.444345 4.897178 4.430375 8.682518 5.958091s7.69799 2.291574 11.737949 2.291574zm2.698964-33.9152894c-3.055431 0-5.431878-1.315533-7.12934-3.946599s-2.546193-6.2042233-2.546193-10.719472c0-5.1942335.865706-9.1578071 2.597117-11.8907208 1.731411-2.7329136 4.124833-4.0993705 7.180264-4.0993705 3.666518 0 6.331533 1.2561218 7.995046 3.7683655v23.1703552c-1.697462 2.4782944-4.396427 3.7174416-8.096894 3.7174416zm54.022987 12.2217254v-55.0996135h-17.212264v55.0996135zm31.514641 1.018478c3.360975 0 6.586153-.492264 9.675533-1.476792v-12.27265c-1.154274.2036954-2.580142.3055432-4.277604.3055432-2.2067 0-3.683492-.4073909-4.430375-1.2221726-.746883-.8147818-1.120325-2.2576244-1.120325-4.3285279v-25.2073095h9.064447v-11.9161827h-9.064447v-13.6985177h-17.16134v13.6985177h-7.027492v11.9161827h7.027492v27.3461115c0 5.6695228 1.408893 9.896203 4.22668 12.6800403 2.817787 2.783838 7.180264 4.175757 13.087431 4.175757zm32.634967 0c5.669523 0 10.082924-1.986031 13.240203-5.958092.475289 2.172751 1.018477 3.81929 1.629563 4.939614h17.16134v-.865705c-1.493766-2.68199-2.274599-6.5522032-2.342497-11.6106397v-24.3925278c-.101848-5.975066-2.189726-10.6770355-6.263635-14.1059086-4.073908-3.428873-9.624609-5.1433096-16.652101-5.1433096s-12.80735 1.6635127-17.339574 4.9905381c-4.532223 3.3270253-6.798335 7.6555532-6.798335 12.9855837h17.16134c0-4.0060102 2.036955-6.0090152 6.110863-6.0090152 4.379452 0 6.569178 2.5292182 6.569178 7.5876548v2.9026598h-5.296081c-8.419411 0-14.835817 1.5277158-19.249218 4.5831472-4.413401 3.0554315-6.620102 7.5706802-6.620102 13.5457461 0 4.7528934 1.816284 8.6994924 5.448853 11.8397972 3.632568 3.140304 8.045969 4.710457 13.240203 4.710457zm4.124832-12.2217263c-1.629563 0-2.970558-.4837766-4.022984-1.4513299-1.052427-.9675533-1.57864-2.2321624-1.57864-3.7938274 0-5.3639797 2.987533-8.0459695 8.962599-8.0459695h4.990538v8.8098274c-.611086 1.1542741-1.621076 2.1897258-3.02997 3.1063553-1.408893.9166294-3.182741 1.3749441-5.321543 1.3749441zm56.009017 12.2217263c3.360975 0 6.586153-.492264 9.675533-1.476792v-12.27265c-1.154274.2036954-2.580142.3055432-4.277604.3055432-2.2067 0-3.683492-.4073909-4.430375-1.2221726-.746884-.8147818-1.120325-2.2576244-1.120325-4.3285279v-25.2073095h9.064446v-11.9161827h-9.064446v-13.6985177h-17.16134v13.6985177h-7.027493v11.9161827h7.027493v27.3461115c0 5.6695228 1.408893 9.896203 4.22668 12.6800403 2.817787 2.783838 7.180264 4.175757 13.087431 4.175757zm42.225281 0c4.515249 0 8.733442-.874193 12.654579-2.622579s6.951107-4.0993706 9.089909-7.0529544l-7.842275-9.2681421c-3.055431 3.8023147-7.299086 5.7034721-12.730964 5.7034721-3.293076 0-5.975066-.8826802-8.045969-2.6480406-2.070904-1.7653604-3.411899-4.192731-4.022985-7.2821116h34.118984v-6.6710254c0-8.5891573-2.240649-15.2856446-6.721949-20.0894618-4.481299-4.8038173-10.592162-7.2057259-18.332589-7.2057259-5.499776 0-10.25267 1.1797361-14.25868 3.5392081-4.00601 2.3594721-7.052954 5.6949848-9.140832 10.0065381-2.087878 4.3115532-3.131817 9.2851167-3.131817 14.9206902v1.425868c0 8.0799188 2.614091 14.6406091 7.842274 19.682071 5.228182 5.0414623 12.068954 7.5621933 20.522314 7.5621933zm7.316406-33.9152896h-17.314111c.950578-6.6540507 3.938111-9.9810761 8.962599-9.9810761 2.715939 0 4.803817.7553706 6.263634 2.2661117s2.155777 3.6410558 2.087878 6.3909441z" fill-rule="nonzero"/></g></g></svg>

<?xml version="1.0" encoding="UTF-8"?>
<svg width="399px" height="119px" viewBox="0 0 399 119" version="1.1" xmlns="http://www.w3.org/2000/svg" xmlns:xlink="http://www.w3.org/1999/xlink">
    <!-- Generator: Sketch 63.1 (92452) - https://sketch.com -->
    <title>Group</title>
    <desc>Created with Sketch.</desc>
    <g id="collaterals" stroke="none" stroke-width="1" fill="none" fill-rule="evenodd">
        <g id="identity" transform="translate(-64.000000, -74.000000)">
            <g id="Group" transform="translate(64.000000, 66.000000)">
                <path d="M195.627306,24.6725107 L207.9234,24.7417886 C209.477839,24.7505466 210.966121,25.3719305 212.065293,26.4711026 L220.319733,34.7255428 C220.713855,35.1196652 220.713855,35.7586638 220.319733,36.1527861 C220.130469,36.3420503 219.873771,36.4483779 219.606111,36.4483779 L195.6274,36.4483779 C192.366398,36.4483779 189.722833,33.8048132 189.722833,30.5438109 C189.722833,27.3011299 192.351546,24.6724175 195.594227,24.6724175 C195.605253,24.6724175 195.61628,24.6724485 195.627306,24.6725107 Z" id="Rectangle" fill="#19EFB6" opacity="0.82686942" transform="translate(205.882701, 30.543811) rotate(-225.000000) translate(-205.882701, -30.543811) "></path>
                <path d="M195.641156,10 L219.619867,10 C220.177241,10 220.629081,10.4518402 220.629081,11.0092134 C220.629081,11.2768734 220.522753,11.5335708 220.333489,11.7228351 L211.948053,20.1082708 C210.834325,21.2219992 209.322926,21.8463591 207.747879,21.8433656 L195.641146,21.8203559 C192.378335,21.8141547 189.736589,19.1673829 189.736589,15.9045669 C189.736589,12.6435647 192.380154,10 195.641156,10 Z" id="Rectangle-Copy-6" fill="#2D75FF" opacity="0.75734747" transform="translate(205.896457, 15.924021) rotate(-495.000000) translate(-205.896457, -15.924021) "></path>
                <path d="M214.837802,19.2388248 L218.961792,23.3624171 L214.837802,27.4862944 C212.531925,29.7921712 208.79336,29.7921712 206.487483,27.4862944 C205.112244,26.1110549 204.56184,24.2233281 204.836272,22.4378693 C205.033421,21.2661729 205.583709,20.1425994 206.487483,19.2388248 C208.79336,16.9329479 212.531925,16.9329479 214.837802,19.2388248 Z" id="Combined-Shape" fill="#2D75FF" transform="translate(211.864792, 23.362560) rotate(-180.000000) translate(-211.864792, -23.362560) "></path>
                <path d="M31.4200201,106.00553 C37.3271876,106.00553 42.5808323,104.919154 47.1809541,102.746403 C51.7810759,100.573651 55.3542332,97.5097326 57.9004261,93.5546464 C60.446619,89.5995601 61.8385377,85.0418748 62.0761824,79.8815906 L62.0761824,79.8815906 L44.3037561,79.8815906 C44.1679592,84.0912962 43.0136851,87.1637022 40.8409338,89.0988088 C38.6681825,91.0339154 35.527878,92.0014687 31.4200201,92.0014687 C26.565279,92.0014687 23.1448933,90.3040068 21.1588628,86.909083 C19.1728324,83.5141591 18.1798172,77.8616109 18.1798172,69.9514384 L18.1798172,69.9514384 L18.1798172,64.706281 C18.2816649,57.4071948 19.3680405,52.094139 21.438944,48.7671136 C23.5098476,45.4400883 26.7689745,43.7765756 31.2163247,43.7765756 C35.5957765,43.7765756 38.8549033,44.7611035 40.9937054,46.7301593 C43.1325074,48.6992151 44.2698069,51.9413674 44.4056038,56.4566161 L44.4056038,56.4566161 L62.228954,56.4566161 C61.4820707,48.1390527 58.3757154,41.6123116 52.909888,36.8763929 C47.4440607,32.1404741 40.2128729,29.7725147 31.2163247,29.7725147 C24.9696648,29.7725147 19.4698882,31.2577939 14.7169948,34.2283523 C9.96410147,37.1989106 6.32304565,41.4086162 3.79382739,46.857469 C1.26460913,52.3063217 0,58.6633166 0,65.9284536 L0,65.9284536 L0,69.5949714 C0,81.1716617 2.80081217,90.1342606 8.4024365,96.4827682 C14.0040608,102.831276 21.6765887,106.00553 31.4200201,106.00553 Z M95.0166919,106.00553 C103.164509,106.00553 109.623352,103.484799 114.39322,98.4433367 C119.163088,93.4018748 121.548022,86.5865652 121.548022,77.9974079 L121.548022,77.9974079 L121.548022,77.3863216 C121.548022,68.5934688 119.171575,61.6423623 114.418682,56.5330019 C109.665788,51.4236415 103.164509,48.8689613 94.9148442,48.8689613 C89.5169153,48.8689613 84.8149458,50.0232354 80.8089357,52.3317836 C76.8029255,54.6403319 73.7305195,57.9418953 71.5917174,62.236474 C69.4529154,66.5310526 68.3835144,71.4282302 68.3835144,76.9280069 L68.3835144,76.9280069 L68.4344383,79.8306668 C68.8078799,87.8766363 71.3710474,94.2506058 76.1239408,98.9525753 C80.8768341,103.654545 87.1744179,106.00553 95.0166919,106.00553 Z M95.0166919,92.7653266 C91.893362,92.7653266 89.5338899,91.5771032 87.9382757,89.2006566 C86.3426615,86.8242099 85.5448544,83.0897936 85.5448544,77.9974079 L85.5448544,77.9974079 L85.5957783,74.8910526 C86.0710676,66.3697937 89.1774229,62.1091643 94.9148442,62.1091643 C101.229403,62.1091643 104.386682,67.0487785 104.386682,76.9280069 L104.386682,76.9280069 L104.386682,78.659418 C104.250885,88.0633571 101.127555,92.7653266 95.0166919,92.7653266 Z M152.09511,126.680616 C157.730684,126.680616 162.687272,125.72155 166.964876,123.803418 C171.24248,121.885286 174.510095,119.135398 176.767719,115.553753 C179.025343,111.972108 180.154155,107.753915 180.154155,102.899174 L180.154155,102.899174 L180.154155,49.8874385 L164.571455,49.8874385 L163.960369,54.6742811 C160.735191,50.8040679 156.253892,48.8689613 150.51647,48.8689613 C145.967272,48.8689613 141.978237,50.0317227 138.549364,52.3572456 C135.120491,54.6827684 132.489425,57.9843318 130.656166,62.2619359 C128.822907,66.5395399 127.906278,71.4621795 127.906278,77.0298546 L127.906278,77.0298546 L127.906278,77.6409409 C127.906278,86.2640474 129.977181,93.1472555 134.118988,98.2905651 C138.260795,103.433875 143.692673,106.00553 150.414623,106.00553 C155.43911,106.00553 159.597892,104.189245 162.890968,100.556677 L162.890968,100.556677 L162.890968,102.288088 C162.890968,110.096413 159.088653,114.000575 151.484024,114.000575 C146.255841,114.000575 142.046135,112.116392 138.854907,108.348027 L138.854907,108.348027 L131.674643,118.430951 C133.677648,120.875296 136.571821,122.861326 140.357161,124.389042 C144.142501,125.916758 148.055151,126.680616 152.09511,126.680616 Z M154.794074,92.7653266 C151.738643,92.7653266 149.362196,91.4497936 147.664734,88.8187276 C145.967272,86.1876616 145.118541,82.6145043 145.118541,78.0992556 C145.118541,72.9050221 145.984247,68.9414485 147.715658,66.2085348 C149.447069,63.4756212 151.840491,62.1091643 154.895922,62.1091643 C158.56244,62.1091643 161.227455,63.3652861 162.890968,65.8775298 L162.890968,65.8775298 L162.890968,89.047885 C161.193506,91.5261794 158.494541,92.7653266 154.794074,92.7653266 Z M208.817061,104.987052 L208.817061,49.8874385 L191.604797,49.8874385 L191.604797,104.987052 L208.817061,104.987052 Z M240.331702,106.00553 C243.692677,106.00553 246.917855,105.513266 250.007235,104.528738 L250.007235,104.528738 L250.007235,92.256088 C248.852961,92.4597834 247.427093,92.5616312 245.729631,92.5616312 C243.522931,92.5616312 242.046139,92.1542403 241.299256,91.3394586 C240.552373,90.5246768 240.178931,89.0818342 240.178931,87.0109307 L240.178931,87.0109307 L240.178931,61.8036212 L249.243378,61.8036212 L249.243378,49.8874385 L240.178931,49.8874385 L240.178931,36.1889208 L223.017591,36.1889208 L223.017591,49.8874385 L215.990099,49.8874385 L215.990099,61.8036212 L223.017591,61.8036212 L223.017591,89.1497327 C223.017591,94.8192555 224.426484,99.0459357 227.244271,101.829773 C230.062058,104.613611 234.424535,106.00553 240.331702,106.00553 Z M272.966669,106.00553 C278.636192,106.00553 283.049593,104.019499 286.206872,100.047438 C286.682161,102.220189 287.225349,103.866728 287.836435,104.987052 L287.836435,104.987052 L304.997775,104.987052 L304.997775,104.121347 C303.504009,101.439357 302.723176,97.5691438 302.655278,92.5107073 L302.655278,92.5107073 L302.655278,68.1181795 C302.55343,62.1431135 300.465552,57.441144 296.391643,54.0122709 C292.317735,50.5833979 286.767034,48.8689613 279.739542,48.8689613 C272.71205,48.8689613 266.932192,50.532474 262.399968,53.8594994 C257.867745,57.1865247 255.601633,61.5150526 255.601633,66.8450831 L255.601633,66.8450831 L272.762973,66.8450831 C272.762973,62.8390729 274.799928,60.8360679 278.873836,60.8360679 C283.253288,60.8360679 285.443014,63.3652861 285.443014,68.4237227 L285.443014,68.4237227 L285.443014,71.3263825 L280.146933,71.3263825 C271.727522,71.3263825 265.311116,72.8540983 260.897715,75.9095297 C256.484314,78.9649612 254.277613,83.4802099 254.277613,89.4552758 C254.277613,94.2081692 256.093897,98.1547682 259.726466,101.295073 C263.359034,104.435377 267.772435,106.00553 272.966669,106.00553 Z M277.091501,93.7838037 C275.461938,93.7838037 274.120943,93.3000271 273.068517,92.3324738 C272.01609,91.3649205 271.489877,90.1003114 271.489877,88.5386464 C271.489877,83.1746667 274.47741,80.4926769 280.452476,80.4926769 L280.452476,80.4926769 L285.443014,80.4926769 L285.443014,89.3025043 C284.831928,90.4567784 283.821938,91.4922301 282.413044,92.4088596 C281.004151,93.325489 279.230303,93.7838037 277.091501,93.7838037 Z M333.100518,106.00553 C336.461493,106.00553 339.686671,105.513266 342.776051,104.528738 L342.776051,104.528738 L342.776051,92.256088 C341.621777,92.4597834 340.195909,92.5616312 338.498447,92.5616312 C336.291747,92.5616312 334.814955,92.1542403 334.068072,91.3394586 C333.321188,90.5246768 332.947747,89.0818342 332.947747,87.0109307 L332.947747,87.0109307 L332.947747,61.8036212 L342.012193,61.8036212 L342.012193,49.8874385 L332.947747,49.8874385 L332.947747,36.1889208 L315.786407,36.1889208 L315.786407,49.8874385 L308.758914,49.8874385 L308.758914,61.8036212 L315.786407,61.8036212 L315.786407,89.1497327 C315.786407,94.8192555 317.1953,99.0459357 320.013087,101.829773 C322.830874,104.613611 327.193351,106.00553 333.100518,106.00553 Z M375.325799,106.00553 C379.841048,106.00553 384.059241,105.131337 387.980378,103.382951 C391.901515,101.634565 394.931485,99.2835804 397.070287,96.3299966 L397.070287,96.3299966 L389.228012,87.0618545 C386.172581,90.8641692 381.928926,92.7653266 376.497048,92.7653266 C373.203972,92.7653266 370.521982,91.8826464 368.451079,90.117286 C366.380175,88.3519256 365.03918,85.924555 364.428094,82.8351744 L364.428094,82.8351744 L398.547078,82.8351744 L398.547078,76.164149 C398.547078,67.5749917 396.306429,60.8785044 391.825129,56.0746872 C387.34383,51.2708699 381.232967,48.8689613 373.49254,48.8689613 C367.992764,48.8689613 363.23987,50.0486974 359.23386,52.4081694 C355.22785,54.7676415 352.180906,58.1031542 350.093028,62.4147075 C348.00515,66.7262607 346.961211,71.6998242 346.961211,77.3353977 L346.961211,77.3353977 L346.961211,78.7612657 C346.961211,86.8411845 349.575302,93.4018748 354.803485,98.4433367 C360.031667,103.484799 366.872439,106.00553 375.325799,106.00553 Z M382.642205,72.0902404 L365.328094,72.0902404 C366.278672,65.4361897 369.266205,62.1091643 374.290693,62.1091643 C377.006632,62.1091643 379.09451,62.8645349 380.554327,64.375276 C382.014144,65.8860171 382.710104,68.0163318 382.642205,70.7662201 L382.642205,70.7662201 L382.642205,72.0902404 Z" id="Cogitate" fill="#2D75FF" fill-rule="nonzero"></path>
            </g>
        </g>
    </g>
</svg>
